packages/elvis-assets-icons/icons/svg/src/image_add-color.svg

<svg width="24" height="24" viewBox="0 0 24 24" fill="none" xmlns="http://www.w3.org/2000/svg">
<path fill-rule="evenodd" clip-rule="evenodd" d="M17.25 12C14.3505 12 12 14.3505 12 17.25C12 20.1495 14.3505 22.5 17.25 22.5C20.1495 22.5 22.5 20.1495 22.5 17.25C22.5 14.3505 20.1495 12 17.25 12ZM10.5 17.25C10.5 13.5221 13.5221 10.5 17.25 10.5C20.9779 10.5 24 13.5221 24 17.25C24 20.9779 20.9779 24 17.25 24C13.5221 24 10.5 20.9779 10.5 17.25Z" fill="#29D305"/>
<path fill-rule="evenodd" clip-rule="evenodd" d="M18 14.25C18 13.8358 17.6642 13.5 17.25 13.5C16.8358 13.5 16.5 13.8358 16.5 14.25V16.5H14.25C13.8358 16.5 13.5 16.8358 13.5 17.25C13.5 17.6642 13.8358 18 14.25 18H16.5V20.25C16.5 20.6642 16.8358 21 17.25 21C17.6642 21 18 20.6642 18 20.25V18H20.25C20.6642 18 21 17.6642 21 17.25C21 16.8358 20.6642 16.5 20.25 16.5H18V14.25Z" fill="black"/>
<path fill-rule="evenodd" clip-rule="evenodd" d="M2.25 1.5C2.05109 1.5 1.86032 1.57902 1.71967 1.71967C1.57902 1.86032 1.5 2.05109 1.5 2.25V18.75C1.5 18.9489 1.57902 19.1397 1.71967 19.2803C1.86032 19.421 2.05109 19.5 2.25 19.5H8.25C8.66421 19.5 9 19.8358 9 20.25C9 20.6642 8.66421 21 8.25 21H2.25C1.65326 21 1.08097 20.7629 0.65901 20.341C0.237053 19.919 0 19.3467 0 18.75V2.25C0 1.65326 0.237053 1.08097 0.65901 0.65901C1.08097 0.237053 1.65326 0 2.25 0H12.879C13.4753 0.000127316 14.0474 0.236973 14.4692 0.6585L17.3413 3.53067C17.7629 3.95247 17.9999 4.52452 18 5.12084V8.25C18 8.66421 17.6642 9 17.25 9C16.8358 9 16.5 8.66421 16.5 8.25V5.12116C16.5 5.12111 16.5 5.12121 16.5 5.12116C16.4999 4.92244 16.421 4.73172 16.2805 4.59116L13.4088 1.7195C13.4088 1.71944 13.4089 1.71956 13.4088 1.7195C13.2683 1.57913 13.0776 1.50008 12.879 1.5C12.8789 1.5 12.8791 1.5 12.879 1.5H2.25Z" fill="black"/>
<path d="M4.45451 5.20451C4.66548 4.99353 4.95163 4.875 5.25 4.875C5.47251 4.875 5.69001 4.94098 5.87502 5.0646C6.06002 5.18821 6.20422 5.36392 6.28936 5.56948C6.37451 5.77505 6.39679 6.00125 6.35338 6.21948C6.30998 6.43771 6.20283 6.63816 6.0455 6.7955C5.88816 6.95283 5.68771 7.05998 5.46948 7.10338C5.25125 7.14679 5.02505 7.12451 4.81948 7.03936C4.61392 6.95422 4.43821 6.81002 4.3146 6.62502C4.19098 6.44001 4.125 6.22251 4.125 6C4.125 5.70163 4.24353 5.41548 4.45451 5.20451Z" fill="#29D305"/>
<path fill-rule="evenodd" clip-rule="evenodd" d="M9.94053 7.33168C10.1577 7.21995 10.3989 7.16298 10.6432 7.16575C10.8874 7.16851 11.1273 7.23091 11.3419 7.34752C11.5565 7.46414 11.7394 7.63143 11.8746 7.83484C11.8786 7.84089 11.8825 7.84699 11.8864 7.85315L12.9154 9.50315C13.1346 9.85462 13.0273 10.3172 12.6759 10.5364C12.3244 10.7556 11.8618 10.6484 11.6426 10.2969L10.626 8.66674L8.62599 11.5177C8.50699 11.6874 8.32313 11.8002 8.118 11.8295C7.91288 11.8588 7.70478 11.8019 7.54307 11.6724L6.31642 10.6896L4.94899 13.5H8.25C8.66421 13.5 9 13.8358 9 14.25C9 14.6642 8.66421 15 8.25 15H3.75C3.49151 15 3.25124 14.8669 3.11415 14.6478C2.97707 14.4286 2.9625 14.1543 3.07559 13.9219L5.01259 9.94088C5.02742 9.91042 5.04428 9.881 5.06308 9.85282C5.17852 9.67977 5.32869 9.53262 5.50405 9.42072C5.67941 9.30883 5.87613 9.23463 6.08171 9.20284C6.28729 9.17106 6.49723 9.18238 6.6982 9.23608C6.89911 9.28978 7.08665 9.38466 7.24893 9.5147C7.24898 9.51474 7.24888 9.51466 7.24893 9.5147L7.85708 10.0019L9.39695 7.80683C9.39713 7.80657 9.39677 7.80709 9.39695 7.80683C9.53667 7.60688 9.72361 7.44326 9.94053 7.33168Z" fill="black"/>
</svg>

<svg width="24" height="24" fill="none" xmlns="http://www.w3.org/2000/svg"><path fill-rule="evenodd" clip-rule="evenodd" d="M17.25 12a5.25 5.25 0 100 10.5 5.25 5.25 0 000-10.5zm-6.75 5.25a6.75 6.75 0 1113.5 0 6.75 6.75 0 01-13.5 0z" fill="#29D305"/><path fill-rule="evenodd" clip-rule="evenodd" d="M18 14.25a.75.75 0 00-1.5 0v2.25h-2.25a.75.75 0 000 1.5h2.25v2.25a.75.75 0 001.5 0V18h2.25a.75.75 0 000-1.5H18v-2.25zM2.25 1.5a.75.75 0 00-.75.75v16.5a.75.75 0 00.75.75h6a.75.75 0 010 1.5h-6A2.25 2.25 0 010 18.75V2.25A2.25 2.25 0 012.25 0h10.629a2.25 2.25 0 011.59.658l2.872 2.873c.422.421.659.994.659 1.59V8.25a.75.75 0 01-1.5 0V5.121a.75.75 0 00-.22-.53L13.41 1.72a.75.75 0 00-.53-.219H2.25z" fill="#000"/><path d="M4.455 5.205a1.125 1.125 0 111.59 1.59 1.125 1.125 0 01-1.59-1.59z" fill="#29D305"/><path fill-rule="evenodd" clip-rule="evenodd" d="M9.94 7.332a1.499 1.499 0 011.946.521l1.03 1.65a.75.75 0 01-1.273.794l-1.017-1.63-2 2.85a.75.75 0 01-1.083.155l-1.227-.982L4.95 13.5H8.25a.75.75 0 010 1.5h-4.5a.75.75 0 01-.674-1.078L5.013 9.94a.751.751 0 01.05-.088 1.5 1.5 0 012.186-.338l.608.487 1.54-2.195c.14-.2.327-.364.544-.475z" fill="#000"/></svg>
